X:13
T: Száraz a bokor a tetőn...
K:Bb
L:1/4
M:2/4
g f/c/ | f<g | a<g | 
a/g/f | g<d | c<B | 
fg | dc | GF | Bc | 
f/e/d/c/ | B<F | G2 | G2 | 

